X: 107
T:Missa Di dadi / Gloria
N: Derived from Jos0903b-Missa_Di_dadi-Gloria.krn
C: Josquin des Prez
%%abc-version 2.0
%%abcx-abcm2ps-target-version 5.9.1 (29 Sep 2008)
%%abc-creator hum2abc beta
%%abcx-conversion-date 2019/02/12 16:15:43
%%abc-edited-by Jesse Rodin
%%abc-edited-by Jesse Rodin; Victoria Chang 2012/01/24
%%abcx-initial-encoding-date 2012/01/24/
%%humdrum-veritas 4219421006
%%humdrum-veritas-data 2017328173
%%linebreak <none>
%%barnumbers 0
L: 1/4
M: 3/1
Q: 1/2=120
%%staves [1 2 3 4]
V: 1 clef=treble
V: 2 clef=treble-8
V: 3 clef=treble-8
V: 4 clef=bass
K: F
[V:1] G8G4 | 
[V:2] G6A2B4 | 
[V:3] z12 :
[V:4] z12 | 
[V:1] E4F6GA | 
[V:2] c4A4d4- | 
[V:3] x4z8 :
[V:4] z12 | 
[V:1] B6AGB4 | 
[V:2] d4G8 | 
[V:3] x8z4 :
[V:4] z12 | 
[V:1] A2G4F2E4 | 
[V:2] c8c4 | 
[V:3] x12 | 
[V:4] z12 | 
[V:1] D4D2D4C2 | 
[V:2] B6A2G4 | 
[V:3] z12 :
[V:4] G,,12 | 
[V:1] B,3A,A,2D2C2D2 | 
[V:2] F8F4 | 
[V:3] x4z8 :
[V:4] D,8A,,2D,2- | 
[V:1] A,3B,C2D2A,2D2- | 
[V:2] F4E2D2F3G | 
[V:3] x8z4 :
[V:4] D,4A,,2D,3C,B,,A,, | 
[V:1] D2C4B,2A,4 | 
[V:2] B2A4G4^F2 | 
[V:3] x12 | 
[V:4] G,,2A,,2F,,2G,,2D,4 | 
[V:1] G,4z2E4E2 | 
[V:2] G8z2G2 | 
[V:3] G12- :
[V:4] G,,4C,8 | 
[V:1] E4D4D2D2 | 
[V:2] G2EFG4G2G2 | 
[V:3] G4B8 :
[V:4] C,4G,,8 | 
[V:1] E2E2E4D2B2- | 
[V:2] G2G2A2E2F2G2 | 
[V:3] c8d4- :
[V:4] C,4A,,2C,2B,,2G,,2 | 
[V:1] B2AGF4z4 | 
[V:2] D4A6G2 | 
[V:3] d12 | 
[V:4] B,,3C,D,6G,,2 | 
[V:1] B4A2G4FE | 
[V:2] G12 | 
[V:3] z8B4- :
[V:4] G,,8G,,4- | 
[V:1] D2_E3DB,2C4 | 
[V:2] G8C4 | 
[V:3] B4G8 :
[V:4] G,,4_E,8 | 
[V:1] D8D4- | 
[V:2] F8G4 | 
[V:3] A8B4- :
[V:4] D,8G,,4 | 
[V:1] D2D2D4D4 | 
[V:2] D2G2D2G2F4 | 
[V:3] B12 | 
[V:4] D,2G,,2D,2G,,2D,4 | 
[V:1] E4F6ED | 
[V:2] G4A6D2 | 
[V:3] c8d4- :
[V:4] C,4F,6B,,2 | 
[V:1] F12 | 
[V:2] D4B2F2B3c | 
[V:3] d12 :
[V:4] B,,8B,,4 | 
[V:1] z4z4F4 | 
[V:2] d12 | 
[V:3] B8A4- :
[V:4] G,,4D,8 | 
[V:1] F2G2A6GA | 
[V:2] D12 | 
[V:3] A12 | 
[V:4] z4F,8 | 
[V:1] B6G4FE | 
[V:2] d8d4 | 
[V:3] G12- :
[V:4] G,4B,6A,G, | 
[V:1] D4z4A4 | 
[V:2] d4D8 | 
[V:3] G4F8- :
[V:4] B,4A,6D,2 | 
[V:1] A4A6F2 | 
[V:2] d12 | 
[V:3] F8A4- :
[V:4] D,12- | 
[V:1] F4G8 | 
[V:2] d8d4 | 
[V:3] A4B8 | 
[V:4] D,4G,8 | 
[V:1] A6G4FE | 
[V:2] A2c4BAG4- | 
[V:3] c8B4- :
[V:4] F,4C,2_E,4D,C, | 
[V:1] D6_E4DC | 
[V:2] G2FED2C2_E4- | 
[V:3] B4G8- :
[V:4] B,,6C,4B,,A,, | 
[V:1] B,4B4A2c2- | 
[V:2] E2D2D4F3G | 
[V:3] G8A4- :
[V:4] G,,2B,,4A,,G,,F,,4 | 
[V:1] cBA3GG4^F2 | 
[V:2] A2D2F2E2D2d2- | 
[V:3] A12 | 
[V:4] F,,2F,3E,C,2D,4 | 
[V:1] G12- | 
[V:2] dcB3AG4FE | 
[V:3] G12- :
[V:4] G,,12- | 
[V:1] G12 ||  
[V:2] D12 ||  
[V:3] G12 ||  
[V:4] G,,12 ||  
[V:1]  [K:F] [K:clef=treble][M:2/1]z8 | 
[V:2]  [K:F] [K:clef=treble-8][M:2/1]D8 | 
[V:3]  [K:F] [K:clef=treble-8][M:2/1]z8 | 
[V:4]  [K:F] [K:clef=bass][M:2/1]z8 | 
[V:1] z8 | 
[V:2] D4F4- | 
[V:3] z8 | 
[V:4] D,8 | 
[V:1] D8 | 
[V:2] F2GAB4- | 
[V:3] z8 | 
[V:4] D,4B,,4- | 
[V:1] D4F4- | 
[V:2] B4A4 | 
[V:3] z8 | 
[V:4] B,,2C,2D,4- | 
[V:1] F2GAB4- | 
[V:2] d8 | 
[V:3] z8 | 
[V:4] D,4G,,4- | 
[V:1] B4A4- | 
[V:2] G4A4 | 
[V:3] z8 | 
[V:4] G,,4D,4- | 
[V:1] A2G2G4- | 
[V:2] B8 | 
[V:3] z8 | 
[V:4] D,4E,4 | 
[V:1] G2ABc4 | 
[V:2] A8 | 
[V:3] z8 | 
[V:4] F,8 | 
[V:1] B4A4- | 
[V:2] d8 | 
[V:3] z8 | 
[V:4] B,,4F,4- | 
[V:1] A2G2G4- | 
[V:2] c4B4 | 
[V:3] z8 | 
[V:4] F,2E,2G,4- | 
[V:1] G4C4 | 
[V:2] A8 | 
[V:3] z8 | 
[V:4] G,2F,E,F,4 | 
[V:1] B,4_E4- | 
[V:2] G8 | 
[V:3] z8 | 
[V:4] G,4C,4- | 
[V:1] E2D2D4- | 
[V:2] G4F4 | 
[V:3] z8 | 
[V:4] C,4D,4- | 
[V:1] D4G4 | 
[V:2] B6c2 | 
[V:3] z8 | 
[V:4] D,2B,,2_E,4 | 
[V:1] F4B4- | 
[V:2] d8 | 
[V:3] z8 | 
[V:4] D,4G,4 | 
[V:1] B2A2A4- | 
[V:2] c4A4 | 
[V:3] z8 | 
[V:4] A,4F,4 | 
[V:1] A4D4 | 
[V:2] B8 | 
[V:3] z8 | 
[V:4] G,8 | 
[V:1] E4F4- | 
[V:2] A8 | 
[V:3] z8 | 
[V:4] C,4D,4- | 
[V:1] F2EDF4 | 
[V:2] d8 | 
[V:3] z8 | 
[V:4] D,4B,,4 | 
[V:1] E4A4- | 
[V:2] c8 | 
[V:3] z8 | 
[V:4] C,4F,4 | 
[V:1] A2G2G4- | 
[V:2] B4G4 | 
[V:3] z8 | 
[V:4] G,4E,4 | 
[V:1] G4F4 | 
[V:2] A8 | 
[V:3] z8 | 
[V:4] D,8 | 
[V:1] E2D4CB, | 
[V:2] G8 | 
[V:3] z8 | 
[V:4] z4G,,4 | 
[V:1] D2C2A,2D2- | 
[V:2] F8 | 
[V:3] z8 | 
[V:4] B,,2A,,2D,4 | 
[V:1] D2G,4B,2- | 
[V:2] G8 | 
[V:3] z8 | 
[V:4] G,,4G,4 | 
[V:1] B,2A,4D2- | 
[V:2] D4F4 | 
[V:3] z8 | 
[V:4] F,4A,4 | 
[V:1] D2C4F2- | 
[V:2] E4A4 | 
[V:3] z8 | 
[V:4] G,4C4 | 
[V:1] F2E4A2- | 
[V:2] G4c4 | 
[V:3] z8 | 
[V:4] [M:3/3](3:2:5B,2G,2B,2A,4F,2 | 
[V:1] A2G4c2- | 
[V:2] B4_e4 | 
[V:3] z8 | 
[V:4] (3G,2E,2G,2(3C,2C2A,2 | 
[V:1] cBB3AA2- | 
[V:2] d4c4 | 
[V:3] z8 | 
[V:4] (3:2:5B,4G,2A,2F,3E, | 
[V:1] AGG4F2 | 
[V:2] B2G2A4 | 
[V:3] z8 | 
[V:4] (3:2:5G,4E,2F,2D,2F,2 | 
[V:1] G2B2A2c2- | 
[V:2] G4F4 | 
[V:3] z8 | 
[V:4] (3:2:6_E,3F,G,2A,2F,2A,2 | 
[V:1] cBAG^F3E | 
[V:2] G2B2A4 | 
[V:3] z8 | 
[V:4] (3G,2E,2G,2(3D,2C,2D,2 | 
[V:1] G8- | 
[V:2] G8- | 
[V:3] z8 | 
[V:4] (3:2:5_E,3D,C,2B,,2C,4 | 
[V:1] G8 ||  
[V:2] G8 ||  
[V:3] z8 ||  
[V:4] G,,8 ||  
[V:1]  [K:F] [K:clef=treble][M:2/1]z8 | 
[V:2]  [K:F] [K:clef=treble-8][M:2/1]D8 | 
[V:3]  [K:F] [K:clef=treble-8][M:2/1]z8 | 
[V:4]  [K:F] [K:clef=bass][M:2/1]G,,8- | 
[V:1] z8 | 
[V:2] D4G4 | 
[V:3] z8 | 
[V:4] G,,4G,,4 | 
[V:1] z8 | 
[V:2] G4G4- | 
[V:3] z8 | 
[V:4] C,8 | 
[V:1] z8 | 
[V:2] G2E2E4- | 
[V:3] z8 | 
[V:4] C,6A,,2 | 
[V:1] z8 | 
[V:2] E4c4- | 
[V:3] z8 | 
[V:4] A,,8 | 
[V:1] z8 | 
[V:2] c2A2A4- | 
[V:3] z8 | 
[V:4] F,6D,2 | 
[V:1] z8 | 
[V:2] A2Bcd4- | 
[V:3] z8 | 
[V:4] D,6E,F, | 
[V:1] z8 | 
[V:2] d4G4- | 
[V:3] z8 | 
[V:4] G,8 | 
[V:1] z8 | 
[V:2] G2A2B2c2 | 
[V:3] z8 | 
[V:4] z4G,,4- | 
[V:1] z8 | 
[V:2] d4D4- | 
[V:3] z8 | 
[V:4] G,,2A,,2B,,2C,2 | 
[V:1] z8 | 
[V:2] D2E2F2G2 | 
[V:3] z8 | 
[V:4] D,6E,2 | 
[V:1] z8 | 
[V:2] A4B4 | 
[V:3] z8 | 
[V:4] F,4G,4 | 
[V:1] z8 | 
[V:2] A2d4G2- | 
[V:3] z8 | 
[V:4] D,4B,4- | 
[V:1] z8 | 
[V:2] G2d2c2f2 | 
[V:3] z8 | 
[V:4] B,4A,4- | 
[V:1] z8 | 
[V:2] e2d4cB | 
[V:3] z8 | 
[V:4] A,2B,4A,G, | 
[V:1] z8 | 
[V:2] A2d2c2B2- | 
[V:3] z8 | 
[V:4] F,6G,2- | 
[V:1] z8 | 
[V:2] B2AGF2B2 | 
[V:3] z8 | 
[V:4] G,2F,E,D,4 | 
[V:1] z8 | 
[V:2] A2G4FE | 
[V:3] z8 | 
[V:4] z4G,,4- | 
[V:1] z8 | 
[V:2] D3EF3G | 
[V:3] z8 | 
[V:4] G,,4D,3E, | 
[V:1] z8 | 
[V:2] A3Bc2d2- | 
[V:3] z8 | 
[V:4] F,3G,A,2D,2 | 
[V:1] z8 | 
[V:2] d2cBcBAG | 
[V:3] z8 | 
[V:4] F,2G,2E,4 | 
[V:1] z8 ||  
[V:2] F8 ||  
[V:3] z8 ||  
[V:4] D,8 ||  
[V:1]  [K:F] [K:clef=treble][M:2/1]z8 | 
[V:2]  [K:F] [K:clef=treble-8][M:2/1]z4F4 | 
[V:3]  [K:F] [K:clef=treble-8][M:2/1]z8 | 
[V:4]  [K:F] [K:clef=bass][M:2/1]F,6E,D, | 
[V:1] z8 | 
[V:2] G4B4- | 
[V:3] z8 | 
[V:4] E,2C,2G,4- | 
[V:1] z4F4 | 
[V:2] B2AGA4 | 
[V:3] z8 | 
[V:4] G,2F,E,D,4 | 
[V:1] G4B4- | 
[V:2] B4G4- | 
[V:3] z8 | 
[V:4] G,,4z2G,,2 | 
[V:1] B2AGA4 | 
[V:2] G2FEF4 | 
[V:3] z8 | 
[V:4] B,,2C,2A,,2D,2 | 
[V:1] B4G4- | 
[V:2] G3AB2c2- | 
[V:3] z8 | 
[V:4] G,,2G,3F,E,D, | 
[V:1] G2FEF4 | 
[V:2] cBAGA2B2- | 
[V:3] z8 | 
[V:4] C,3E,D,4 | 
[V:1] G3AB2c2- | 
[V:2] BAGFG2A2- | 
[V:3] z8 | 
[V:4] G,,2C,2B,,2A,,2- | 
[V:1] cBAGA4 | 
[V:2] AGFEF4- | 
[V:3] z8 | 
[V:4] A,,2D,3E,F,2 | 
[V:1] D4D4 | 
[V:2] F4G4- | 
[V:3] z8 | 
[V:4] B,,6A,,G,, | 
[V:1] D4E4- | 
[V:2] G4C4 | 
[V:3] z8 | 
[V:4] G,,4G,4 | 
[V:1] E2D2D4- | 
[V:2] G4F2G2- | 
[V:3] z8 | 
[V:4] z2G,,2B,,2G,,2 | 
[V:1] D4F4- | 
[V:2] G2FED4 | 
[V:3] z8 | 
[V:4] B,6A,G, | 
[V:1] F4B,4- | 
[V:2] z2F2G2B2- | 
[V:3] z8 | 
[V:4] A,2D,2E,2D,2 | 
[V:1] B,4C4 | 
[V:2] B2AGA4 | 
[V:3] z8 | 
[V:4] G,4F,4 | 
[V:1] D3EF2G2- | 
[V:2] B8 | 
[V:3] z8 | 
[V:4] B,,3C,D,2_E,2- | 
[V:1] GFD2E2F2- | 
[V:2] B3AG2F2 | 
[V:3] z8 | 
[V:4] E,D,B,,2C,2D,2- | 
[V:1] FEC3D_E2- | 
[V:2] A4B2c2- | 
[V:3] z8 | 
[V:4] D,C,A,,2G,,2C,2- | 
[V:1] EDB,2C4 | 
[V:2] c2B4A2 | 
[V:3] z8 | 
[V:4] C,2D,2_E,2F,2 | 
[V:1] B,4F4 | 
[V:2] B8- | 
[V:3] z8 | 
[V:4] G,4z2D,2 | 
[V:1] G3AB4- | 
[V:2] B8- | 
[V:3] z8 | 
[V:4] _E,3F,G,4 | 
[V:1] B4F4 | 
[V:2] B8 | 
[V:3] z8 | 
[V:4] G,,4z2B,2- | 
[V:1] G4A2B2- | 
[V:2] _E4D4 | 
[V:3] z8 | 
[V:4] B,2A,G,F,2B,,2- | 
[V:1] BAF2G2A2- | 
[V:2] d3cB2A2 | 
[V:3] z8 | 
[V:4] B,,C,D,2E,2F,2- | 
[V:1] AGE2F2G2- | 
[V:2] c3BA2G2 | 
[V:3] z8 | 
[V:4] F,E,C,2D,2_E,2- | 
[V:1] GFD3EFG | 
[V:2] B3AG2F2 | 
[V:3] z8 | 
[V:4] E,D,B,,3C,D,=E, | 
[V:1] ABcdB2A2- | 
[V:2] cBAGd4 | 
[V:3] z8 | 
[V:4] F,G,A,B,G,2F,2- | 
[V:1] A2G4^F2 | 
[V:2] c2B2A4 | 
[V:3] z8 | 
[V:4] F,E,G,2D,4 | 
[V:1] G8 ||  
[V:2] G8 ||  
[V:3] z8 ||  
[V:4] G,,8 ||  
[V:1]  [K:F] [K:clef=treble][M:2/1]D8 | 
[V:2]  [K:F] [K:clef=treble-8][M:2/1]F8 | 
[V:3]  [K:F] [K:clef=treble-8][M:12/0]z8 :
[V:4]  [K:F] [K:clef=bass][M:2/1]B,,8- | 
[V:1] D4D4 | 
[V:2] F4G4 | 
[V:3] x8 :
[V:4] B,,8 | 
[V:1] C4C4 | 
[V:2] E4F4 | 
[V:3] x8 :
[V:4] A,,8 | 
[V:1] B,6G,2 | 
[V:2] G8- | 
[V:3] x8 :
[V:4] G,,8- | 
[V:1] B,2C2D4- | 
[V:2] G4D4 | 
[V:3] z8 :
[V:4] G,,8 | 
[V:1] D2C2A,4 | 
[V:2] F6G2 | 
[V:3] x8 :
[V:4] D,8 | 
[V:1] z4C4- | 
[V:2] A8- | 
[V:3] x8 :
[V:4] D,4A,,4 | 
[V:1] C4G,4 | 
[V:2] A4E4 | 
[V:3] x8 :
[V:4] C,8 | 
[V:1] B,2C2D4- | 
[V:2] G8 | 
[V:3] z8 :
[V:4] G,,8 | 
[V:1] D4F4- | 
[V:2] D8 | 
[V:3] x8 :
[V:4] z4D,4- | 
[V:1] F2E2E4- | 
[V:2] A8- | 
[V:3] x8 :
[V:4] D,4C,4 | 
[V:1] E2D2D4- | 
[V:2] A8 | 
[V:3] x8 | 
[V:4] D,4F,4 | 
[V:1] D2C2C4 | 
[V:2] G8 | 
[V:3] z8 :
[V:4] E,8 | 
[V:1] C4F4- | 
[V:2] A8 | 
[V:3] x8 :
[V:4] A,,4D,4 | 
[V:1] F2EDEDCB, | 
[V:2] D4C4 | 
[V:3] x8 :
[V:4] B,,4C,4 | 
[V:1] A,6B,2 | 
[V:2] F3GA4- | 
[V:3] x8 :
[V:4] D,8 | 
[V:1] C2D2E2F2 | 
[V:2] A2B2c2A2- | 
[V:3] z8 :
[V:4] A,,8- | 
[V:1] E2D4^C2 | 
[V:2] A2F2E4 | 
[V:3] x8 :
[V:4] A,,8 | 
[V:1] D8- | 
[V:2] D3EF2G2- | 
[V:3] x8 :
[V:4] B,,8 | 
[V:1] D8 | 
[V:2] G2FEF3G | 
[V:3] x8 :
[V:4] G,,4D,4- | 
[V:1] z8 | 
[V:2] A2B4AG | 
[V:3] z8 :
[V:4] D,4G,4 | 
[V:1] z8 | 
[V:2] A3Bc2d2- | 
[V:3] x8 :
[V:4] F,4E,2D,2 | 
[V:1] z8 | 
[V:2] d2cBcBAG | 
[V:3] x8 :
[V:4] F,2G,2A,4- | 
[V:1] z8 | 
[V:2] ^F4G4- | 
[V:3] x8 | 
[V:4] A,4G,4 | 
[V:1] z4C4- | 
[V:2] G4E4- | 
[V:3] G8- :
[V:4] C,8 | 
[V:1] C4C4 | 
[V:2] E4E4 | 
[V:3] G8- :
[V:4] C,4C,4 | 
[V:1] C8 | 
[V:2] E8 | 
[V:3] G8- :
[V:4] C,8 | 
[V:1] D4D4 | 
[V:2] D4D4 | 
[V:3] G8 :
[V:4] G,,8 | 
[V:1] D4D4 | 
[V:2] G4G4 | 
[V:3] B8- :
[V:4] G,,4G,,4 | 
[V:1] D8 | 
[V:2] G8 | 
[V:3] B8 :
[V:4] G,,8 | 
[V:1] E6C2 | 
[V:2] G4E3F | 
[V:3] c8- :
[V:4] C,8- | 
[V:1] E2F2G4- | 
[V:2] G2A2E4 | 
[V:3] c8 :
[V:4] C,8 | 
[V:1] G2B4AG | 
[V:2] D4B4 | 
[V:3] d8- :
[V:4] G,,8 | 
[V:1] F8- | 
[V:2] A2B2A2B2- | 
[V:3] d8- :
[V:4] D,8- | 
[V:1] F8 | 
[V:2] B2AGA4 | 
[V:3] d8- :
[V:4] D,8 | 
[V:1] B,4A,2B,2- | 
[V:2] z8 | 
[V:3] d8 | 
[V:4] G,4F,2G,2- | 
[V:1] B,2A,G,D4- | 
[V:2] z8 | 
[V:3] z8 :
[V:4] G,2F,E,D,3E, | 
[V:1] D2B,2A,4 | 
[V:2] z8 | 
[V:3] x8 :
[V:4] F,2G,4^F,2 | 
[V:1] G,4z4 | 
[V:2] d8 | 
[V:3] B8- :
[V:4] G,8 | 
[V:1] z8 | 
[V:2] G4d4- | 
[V:3] B8 :
[V:4] z8 | 
[V:1] z8 | 
[V:2] d2cd_e2d2- | 
[V:3] G8- :
[V:4] z8 | 
[V:1] z8 | 
[V:2] dcB4AG | 
[V:3] G8 :
[V:4] z8 | 
[V:1] D4E2F2- | 
[V:2] F4z4 | 
[V:3] A8- :
[V:4] D,4C,2D,2- | 
[V:1] F2EDC4 | 
[V:2] z8 | 
[V:3] A8 :
[V:4] D,2C,B,,A,,4 | 
[V:1] z4D4- | 
[V:2] D2E2D2G2- | 
[V:3] B8- :
[V:4] G,,8 | 
[V:1] D4D4- | 
[V:2] G2FED4 | 
[V:3] B8- :
[V:4] z8 | 
[V:1] D2G,2B,3C | 
[V:2] z8 | 
[V:3] B8- :
[V:4] D,2E,2D,2G,2- | 
[V:1] D3EF3G | 
[V:2] z8 | 
[V:3] B8 | 
[V:4] G,2F,E,D,4 | 
[V:1] E2A,2C3D | 
[V:2] E2F2E2A2- | 
[V:3] c8- :
[V:4] A,,8 | 
[V:1] E3FG3A | 
[V:2] A2GFE4 | 
[V:3] c8 :
[V:4] z8 | 
[V:1] F2D3CB,2 | 
[V:2] z4D3E | 
[V:3] d8- :
[V:4] D,3E,F,2G,2 | 
[V:1] A,2G,2D3E | 
[V:2] F2G2D2G2 | 
[V:3] d8- :
[V:4] D,2G,,2B,,3C, | 
[V:1] F3GA2B2- | 
[V:2] F2B2A2d2- | 
[V:3] d8- :
[V:4] D,3E,F,2G,2- | 
[V:1] B2G4^F2 | 
[V:2] d2B2A4 | 
[V:3] d8 :
[V:4] G,4D,4 | 
[V:1] G8 | 
[V:2] G8- | 
[V:3] B8- :
[V:4] G,,8- | 
[V:1] z4G4 | 
[V:2] G4D2E2 | 
[V:3] B8 :
[V:4] G,,8 | 
[V:1] A2c3BA2- | 
[V:2] F8 | 
[V:3] A8- :
[V:4] F,,8 | 
[V:1] A2GFE2F2 | 
[V:2] z8 | 
[V:3] A8- :
[V:4] z8 | 
[V:1] E2A3Bc2- | 
[V:2] z8 | 
[V:3] A8- :
[V:4] z8 | 
[V:1] cBAG^F3E | 
[V:2] z8 | 
[V:3] A8 | 
[V:4] z8 | 
[V:1] G8 | 
[V:2] z4D4 | 
[V:3] G8- :
[V:4] z4G,,4 | 
[V:1] z8 | 
[V:2] E4D4- | 
[V:3] G8- :
[V:4] C,4B,,2G,,2- | 
[V:1] z8 | 
[V:2] D2C2D4 | 
[V:3] G8- :
[V:4] G,,2C,4B,,2 | 
[V:1] z8 | 
[V:2] E4D4- | 
[V:3] G8 :
[V:4] C,4G,,4 | 
[V:1] A,2B,2A,2D2- | 
[V:2] D4A2B2 | 
[V:3] F8- :
[V:4] D,8- | 
[V:1] D2CB,A,4 | 
[V:2] A2d4cB | 
[V:3] F8- :
[V:4] D,4D,4- | 
[V:1] z8 | 
[V:2] A3Bc2d2 | 
[V:3] F8- :
[V:4] D,2C,B,,A,,2B,,2 | 
[V:1] C2D2C2F2- | 
[V:2] A8 | 
[V:3] F8 :
[V:4] F,,8 | 
[V:1] F2EDC4 | 
[V:2] z8 | 
[V:3] A8- :
[V:4] F,4F,4- | 
[V:1] z8 | 
[V:2] z8 | 
[V:3] A8 :
[V:4] F,2E,D,C,4 | 
[V:1] D8 | 
[V:2] F8 | 
[V:3] B8- :
[V:4] B,,8 | 
[V:1] D8 | 
[V:2] G8- | 
[V:3] B8 | 
[V:4] G,,8 | 
[V:1] E8- | 
[V:2] G4E3F | 
[V:3] c8- :
[V:4] C,8 | 
[V:1] E8 | 
[V:2] G2A2E3F | 
[V:3] c8 :
[V:4] C,8 | 
[V:1] D8 | 
[V:2] G8 | 
[V:3] B8- :
[V:4] G,,8 | 
[V:1] [M:3/3](3:2:2G,8G,4 | 
[V:2] [M:3/3](3:2:1z12 | 
[V:3] B8 :
[V:4] [M:3/3](3:2:1z12 | 
[V:1] (3B,6C2D4 | 
[V:2] (3G6F2D4 | 
[V:3] G8- :
[V:4] (3G,,6A,,2B,,4 | 
[V:1] (3_E4D4G,4 | 
[V:2] (3C4D4E4 | 
[V:3] G8- :
[V:4] (3C,4B,,4C,4 | 
[V:1] (3z4D4E4 | 
[V:2] (3D4z4C4 | 
[V:3] G8- :
[V:4] (3:2:2G,,8C,4 | 
[V:1] (3:2:2D4G8 | 
[V:2] (3D4E4D4 | 
[V:3] G8 :
[V:4] (3B,,4C,4G,,4 | 
[V:1] (3F4A6G2 | 
[V:2] (3:2:4F6D2F3G | 
[V:3] A8- :
[V:4] (3D,4F,6E,2 | 
[V:1] (3:2:4F4E4D2F2 | 
[V:2] A2(3Bc4F4 | 
[V:3] A8- :
[V:4] (3D,4C,4D,4 | 
[V:1] (3:2:5E2A4F2D2F2 | 
[V:2] (3:2:5z4F3GA3B | 
[V:3] A8- :
[V:4] (3:2:2A,,4D,8 | 
[V:1] (3:2:6E2A3G ^F EF4 | 
[V:2] (3c4A4d4- | 
[V:3] A8 :
[V:4] (3:2:2C,4D,8 | 
[V:1] G8- | 
[V:2] d8 | 
[V:3] G8- :
[V:4] G,,8- | 
[V:1] G8 |]  
[V:2] D8 & d8 |]  
[V:3] G8 |]  
[V:4] G,,8 |]  



